packages/kaspersky-hexa-ui-icons/src/iconsSVGs/24/ArrangeGridSelected.svg

<svg xmlns="http://www.w3.org/2000/svg" width="24" height="24" fill="none" viewBox="0 0 24 24"><path fill="#000" fill-rule="evenodd" d="M5 2C3.3431 2 2 3.3431 2 5v2.5c0 .5523.4477 1 1 1s1-.4477 1-1V5c0-.5523.4477-1 1-1h2.5c.5523 0 1-.4477 1-1s-.4477-1-1-1zm11.5 0c-.5523 0-1 .4477-1 1s.4477 1 1 1H19c.5523 0 1 .4477 1 1v2.5c0 .5523.4477 1 1 1s1-.4477 1-1V5c0-1.6569-1.3431-3-3-3zM10 3c0-.5523.4477-1 1-1h2c.5523 0 1 .4477 1 1s-.4477 1-1 1h-2c-.5523 0-1-.4477-1-1M8 7c-.5523 0-1 .4477-1 1v2c0 .5523.4477 1 1 1h2c.5523 0 1-.4477 1-1V8c0-.5523-.4477-1-1-1zm6 0c-.5523 0-1 .4477-1 1v2c0 .5523.4477 1 1 1h2c.5523 0 1-.4477 1-1V8c0-.5523-.4477-1-1-1zM2 13c0 .5523.4477 1 1 1s1-.4477 1-1v-2c0-.5523-.4477-1-1-1s-1 .4477-1 1zm19-3c.5523 0 1 .4477 1 1v2c0 .5523-.4477 1-1 1s-1-.4477-1-1v-2c0-.5523.4477-1 1-1M7 14c0-.5523.4477-1 1-1h2c.5523 0 1 .4477 1 1v2c0 .5523-.4477 1-1 1H8c-.5523 0-1-.4477-1-1zm6 0c0-.5523.4477-1 1-1h2c.5523 0 1 .4477 1 1v2c0 .5523-.4477 1-1 1h-2c-.5523 0-1-.4477-1-1zm-9 2.5c0-.5523-.4477-1-1-1s-1 .4477-1 1V19c0 1.6569 1.3431 3 3 3h2.5c.5523 0 1-.4477 1-1s-.4477-1-1-1H5c-.5523 0-1-.4477-1-1zm18 0c0-.5523-.4477-1-1-1s-1 .4477-1 1V19c0 .5523-.4477 1-1 1h-2.5c-.5523 0-1 .4477-1 1s.4477 1 1 1H19c1.6569 0 3-1.3431 3-3zM13 22c.5523 0 1-.4477 1-1s-.4477-1-1-1h-2c-.5523 0-1 .4477-1 1s.4477 1 1 1z"/></svg>

<svg width="24" height="24" viewBox="0 0 24 24" fill="none" xmlns="http://www.w3.org/2000/svg">
<path d="M2 5C2 3.34315 3.34315 2 5 2H7.5C8.05228 2 8.5 2.44772 8.5 3C8.5 3.55228 8.05228 4 7.5 4H5C4.44772 4 4 4.44772 4 5V7.5C4 8.05228 3.55228 8.5 3 8.5C2.44772 8.5 2 8.05228 2 7.5V5Z" fill="black"/>
<path d="M15.5 3C15.5 2.44772 15.9477 2 16.5 2H19C20.6569 2 22 3.34315 22 5V7.5C22 8.05228 21.5523 8.5 21 8.5C20.4477 8.5 20 8.05228 20 7.5V5C20 4.44772 19.5523 4 19 4H16.5C15.9477 4 15.5 3.55228 15.5 3Z" fill="black"/>
<path d="M3 15.5C3.55228 15.5 4 15.9477 4 16.5V19C4 19.5523 4.44772 20 5 20H7.5C8.05228 20 8.5 20.4477 8.5 21C8.5 21.5523 8.05228 22 7.5 22H5C3.34315 22 2 20.6569 2 19V16.5C2 15.9477 2.44772 15.5 3 15.5Z" fill="black"/>
<path d="M21 15.5C21.5523 15.5 22 15.9477 22 16.5V19C22 20.6569 20.6569 22 19 22H16.5C15.9477 22 15.5 21.5523 15.5 21C15.5 20.4477 15.9477 20 16.5 20H19C19.5523 20 20 19.5523 20 19V16.5C20 15.9477 20.4477 15.5 21 15.5Z" fill="black"/>
<path d="M10 3C10 2.44772 10.4477 2 11 2H13C13.5523 2 14 2.44772 14 3C14 3.55228 13.5523 4 13 4H11C10.4477 4 10 3.55228 10 3Z" fill="black"/>
<path d="M21 10C21.5523 10 22 10.4477 22 11V13C22 13.5523 21.5523 14 21 14C20.4477 14 20 13.5523 20 13V11C20 10.4477 20.4477 10 21 10Z" fill="black"/>
<path d="M13 22C13.5523 22 14 21.5523 14 21C14 20.4477 13.5523 20 13 20H11C10.4477 20 10 20.4477 10 21C10 21.5523 10.4477 22 11 22H13Z" fill="black"/>
<path d="M2 13C2 13.5523 2.44771 14 3 14C3.55229 14 4 13.5523 4 13V11C4 10.4477 3.55229 10 3 10C2.44771 10 2 10.4477 2 11V13Z" fill="black"/>
<path d="M7 14C7 13.4477 7.44772 13 8 13H10C10.5523 13 11 13.4477 11 14V16C11 16.5523 10.5523 17 10 17H8C7.44772 17 7 16.5523 7 16V14Z" fill="black"/>
<path d="M8 7C7.44772 7 7 7.44772 7 8V10C7 10.5523 7.44772 11 8 11H10C10.5523 11 11 10.5523 11 10V8C11 7.44772 10.5523 7 10 7H8Z" fill="black"/>
<path d="M13 14C13 13.4477 13.4477 13 14 13H16C16.5523 13 17 13.4477 17 14V16C17 16.5523 16.5523 17 16 17H14C13.4477 17 13 16.5523 13 16V14Z" fill="black"/>
<path d="M14 7C13.4477 7 13 7.44772 13 8V10C13 10.5523 13.4477 11 14 11H16C16.5523 11 17 10.5523 17 10V8C17 7.44772 16.5523 7 16 7H14Z" fill="black"/>
</svg>
